X:1
T:Sur la plage
T:Sur la plage
T:Cécile Chaminade
T:Edouard Guinand (English version by Dr. Th. Baker)
T:(On the Shore)
T:OpenScore (CC0)
T:OpenScore (CC0)
T:OpenScore (CC0)
T:OpenScore (CC0)
T:OpenScore (CC0)
T:OpenScore (CC0)
T:OpenScore (CC0)
C:Cécile Chaminade
Z:Edouard Guinand
Z:OpenScore (CC0)
%%score ( 1 2 ) { ( 3 6 ) | ( 4 5 ) }
L:1/8
Q:1/4=76
M:3/4
K:Bb
V:1 treble nm="Voice"
V:2 treble 
V:3 treble nm="Piano"
V:6 treble 
V:4 bass 
V:5 bass 
V:1
"^Lento" z6 | z6 | z2 z2!f!"^colla piena voce" D2 |!<(! G A B2 d2!<)! |!>(! (^c2!>)! G4) | %5
w: ||La|va- gue vient sans|ces- se|
w: ||The|bil- lows roll- ing|on- ward|
!<(! G A B2 d!<)! d |!f! g4-[Q:1/4=60]"^T" g G[Q:1/4=70]"^rit." | %7
w: ap- por- ter au ri-|\- va- ge Son|
w: ev- er bring to the|shore * Un-|
[Q:1/4=76]"^a tempo"!>(! A A B B!>)! c c | A6- |!>(! A6-!>)! | A2 z2!f! d2 | f3 F F F | =E4 _E2 | %13
w: dou- leu- reux gé- mis- se-|ment,|_|* Et|sem- ble, que le|ciel soit|
w: ceas- ing- ly their sad re-|frain,|_|* And|seem, or if the|sky be|
!p! _e2!<(! _E2 E!<)! E | E2 !breath!D2 C2 | B,2"^dim." D2 B, C | (A,2 D2) (A,B,) |!p! G,6- | %18
w: sombre ou sans nu-|a- ge, Con-|\- ter son é- ter-|nel * tour- *|ment.|
w: bright or cloud- ed|o'er _ As|tell- ing of e-|ter- * nal *|pain.|
 G,2 z2!mf! G G | B4 A A |"^cresc." !breath!D4!f! D D | d4 ^c c | A4 A2 |!p! ^G A G D A2 | %24
w: _ Au dé-|clin du so-|leil, au le-|\- ver de l'au-|ro- re,|Com- me dans la nuit|
w: _ When the|morn- ing is|nigh, when the|sun sink- eth|down, _|And when gloo- my night|
 ^G D !breath!=G3 D |!<(! F4 (3F A!<)! d |!f! (f2 _d2) !breath!c2 | =B2 B B B B | %28
w: sans lu- eur. Pai-|\- sible ou me- na-|çan- * te,|el- le sou- pire en-|
w: reigns be- low, Or|calm or sul- len|threat- * 'ning,|ev- er for- lorn their|
 (c4 !breath!^c2) |!f! d3 A F D | F4 =E D | D6- |!>(! D6-!>)! | D2 z2 z2 | z2 z2!p! D2 | %35
w: co- re|Son in- con- so-|la- ble dou-|leur!|_||De-|
w: moan *|Voic- es an un-|end- ing _|woe!|_||E'er|
!<(! G A B2!<)! d2 | (^c2 G4) |!<(! G A B2 d!<)! d |!f! g4-[Q:1/4=60]"^T" g!p! G[Q:1/4=70]"^rit." | %39
w: puis l'in- stant cru-|el _|où tu m'as dé- lais-|sé- e, Il|
w: since the cru- el|hour _|when for- sak- en by|thee * I|
[Q:1/4=76]"^a tempo" A A B B c c | A6- | A6- | A z z d d d |!f! (f4 F2) | =E4 E E | %45
w: ne se pas- se plus un|jour,|_|* Sans que s'ex-|ha- le‿aus-|\- si de mon|
w: nev- er- more a- wake at|morn,|_|* That from my|wound- ed|soul does not|
!mp! (_e2!<(! _E3)!<)! E |!f! (E2 !breath!D2) C2 | B,2 D2 B, C |!<(! (A,2!<)!!p! D2) (A,B,) | %49
w: â- me bles-|sé- e La|plain- te de mon|tris- * te‿a- *|
w: heav- en- ward|flee * The|moan- ing of my|love * for- *|
 G,6- | G,4 z2 | z6 |] %52
w: mour!|||
w: lorn!|||
V:2
 x6 | x6 | x6 | x6 | x6 | x6 | x6 | x6 | x6 | x6 | x6 | x6 | x6 | x6 | (E2 D2) x2 | x6 | x6 | x6 | %18
 x6 | x6 | x6 | x6 | A6 | x6 | x6 | x6 | x6 | x6 | x6 | x6 | x4 (=ED) | x6 | x6 | x6 | x6 | x6 | %36
 x6 | x6 | x6 | x6 | x6 | x6 | x6 | x6 | x6 | x6 | x6 | x6 | x6 | x6 | x6 | x6 |] %52
V:3
!mf! D2 !arpeggio![DGd]4 | D2 !arpeggio![DGd]4 | D2 !arpeggio![DGd]4 | D2 [DGd]4 | x2 [EG^c]4 | %5
 D2"_cresc." [DGd]4 | E2 [egbe']4 | %7
!>(! !arpeggio![Acfa]2 !arpeggio![Bdfb]2!>)! !arpeggio![cegc']2 | !arpeggio![d^fad']4 x2 | %9
 !arpeggio![d^fad']6 | !arpeggio![d^fad']6 |!f! !arpeggio![=B,F=B]2 [Bf=b]4 | %12
 !arpeggio![C=Ec]2 !arpeggio![c=ec']4 |!p! !arpeggio![A,CE^F]2 [Ace^f]4 | %14
 [A,E^F]2 [G,DG]2 [G,A,C]2 | [G,B,D]2"_dim." !arpeggio![=ebd'=e']4 | %16
 !arpeggio![^F,CD^F]2 !arpeggio![^fc'd'^f']4 | D2 !arpeggio![gbd'g']4 | D2 !arpeggio![gbd'g']4 | %19
!mf![I:staff +1] [^C,=E,B,]2[I:staff -1] [^C=EB]2 !arpeggio![A,DA]2 | %20
 !arpeggio!D2 !arpeggio![DFBd]4 |!f! D2 [DGd]2 [^CG^c]2 | [A,DA]2 !arpeggio![Ada]4 | %23
 [^G,D^G]4 [A,DA]2 | [^G,D^G]2 [=G,D=G]4 | [DF]2 [Fdf]4 | [_DF]2 [_df_a_d']2 [cc']2 | %27
 [=B,F=B]2 [Bf=b]4 | [CFc]2 [cfc']2 [^C=E=A^c]2 |!f! [DAd]2 [dad']4 | !^!D2 !^![FBd]2 [^C=EA^c]2 | %31
 D2 !arpeggio![d^fad']4 | =E2 !arpeggio![=ea=e']4 |!mf! [D=F]2"_dim." !arpeggio![fbd'f']4 | %34
!pp! !arpeggio![CD^F]2 !arpeggio![^fc'd'^f']4 | !arpeggio!D2 !arpeggio![gbd'g']4 | %36
[I:staff +1] !arpeggio![E,G,B,^C]2[I:staff -1] !arpeggio![gb^c'g']4 | %37
!<(! !arpeggio!D2 !arpeggio![gbd'g']4!<)! | !arpeggio!E2!mf! !arpeggio![egbe']4 | %39
!mp! !arpeggio![Acfa]2 !arpeggio![Bdfb]2 !arpeggio![cegc']2 | !arpeggio![d^fad']6 | %41
 !arpeggio![d^fad']6 | !arpeggio![d^fad']6 |!f! !arpeggio![=B,F=B]2 [Bf=b]4 | %44
 !arpeggio![C=Ec]2 !arpeggio![c=ec']4 |!mp! !arpeggio![A,E^F]2 !arpeggio![Ace^f]4 | %46
 [A,E^F]2 [G,DG]2 [G,A,C]2 | [G,B,D]2 !arpeggio![=ebd'=e']4 | !arpeggio![CD^F]2 [^fc'd'^f']4 | %49
!<(! D2 !arpeggio![GBdg]4!<)! | !arpeggio![gbd'g']2 !arpeggio![GBdg]4 |[I:staff +1] [D,G,B,]6 |] %52
V:4
!ped! !arpeggio![D,G,B,]2 [D,B,]4 | !arpeggio![D,G,B,]2 [D,B,]4 | %2
 !arpeggio![D,G,B,]2 [D,B,]4!ped-up! |!ped! !arpeggio![D,G,B,]2 [F,B,]4!ped-up! | %4
!ped! !arpeggio![E,G,^C]2 [E,B,]4!ped-up! |!ped! !arpeggio![D,G,B,]2 [D,B,]4!ped-up! | %6
!f!!ped! !arpeggio![E,G,B,]2[I:staff -1] [B,EGB]4!ped-up! | %7
!ped![I:staff +1] [E,A,CF]2 !arpeggio![D,B,F]2 !arpeggio![C,G,E]2 | z2 !arpeggio![A,,D,^F,A,]4 | %9
 z2!ped-up!!ped! !arpeggio![A,,D,^F,A,]4 | z2 !arpeggio![A,,D,^F,A,]4!ped-up! | %11
!ped! [_D,,_D,]6!ped-up! |!ped! [G,,,G,,]6!ped-up! |!ped! [G,,,G,,]6!ped-up! | %14
 [C,,C,]2 [B,,,B,,]2 [E,,E,]2 |!ped! [D,,D,]6!ped-up! |!p!!ped! [D,,,D,,]6!ped-up! | %17
!p!!ped! !arpeggio![D,G,B,]2[I:staff -1] [DGBd]4 | %18
[I:staff +1] [D,G,B,]2[I:staff -1] [DGBd]4!ped-up! | %19
!ped![I:staff +1] [G,,,G,,]2 [G,,G,]2!ped-up! [F,,F,]2 |!ped! [D,B,]2 x2 x2!ped-up! | %21
!ped! [D,G,]2 [E,E]2!ped-up! [=E,,=E,]2 |!ped! z2 [F,DF]4!ped-up! |!p! [B,,,B,,]4 [F,,,F,,]2 | %24
 [B,,,B,,]4 [B,,,B,,]2 |!ped! F,2 [A,D]4!ped-up! | %26
!f!!ped! [F,_A,]2[I:staff -1] [_A,DF_A]4!ped-up! |!ped![I:staff +1] [_D,,_D,]6!ped-up! | %28
!ped! [_A,,,_A,,]4 [G,,,G,,]2!ped-up! |!ped! z2 [F,A,D]4!ped-up! |!ped! [F,B,]2 x4!ped-up! | %31
!ped! !arpeggio![D,^F,A,]2[I:staff -1] [A,D^FA]4!ped-up! | %32
!ped![I:staff +1] !arpeggio![=E,A,]2 x4!ped-up! |!ped! !arpeggio![=F,B,]2 x4!ped-up! | %34
!ped! ^F,2 x4!ped-up! |!ped! [D,G,B,]2 x4!ped-up! |!ped! x6!ped-up! |!ped! [D,G,B,]2 x4!ped-up! | %38
!f!!ped! [E,G,B,]2 x4!ped-up! | %39
!ped! !arpeggio![E,CF]2!ped-up!!ped! !arpeggio![D,B,F]2!ped-up!!ped! !arpeggio![C,G,E]2!ped-up! | %40
 z2!ped! !arpeggio![A,,D,^F,A,]4 | z2 !arpeggio![A,,D,^F,A,]4 | %42
 z2 !arpeggio![A,,D,^F,A,]4!ped-up! |!ped! [_D,,_D,]6!ped-up! |!ped! [G,,,G,,]6!ped-up! | %45
!ped! [G,,,G,,]6!ped-up! |!f! [C,,C,]2 [B,,,B,,]2 [E,,E,]2 |!ped! [D,,D,]6!ped-up! | %48
!p!!ped! ^F,2 x4!ped-up! |!ped! [D,G,B,]2 [G,,D,B,]4 | %50
!>(![I:staff -1] [G,DB]2[I:staff +1] [G,,D,B,]4 | [G,,,G,,]6!ped-up!!>)! |] %52
V:5
 [G,,,G,,]6 | [G,,,G,,]6 | [G,,,G,,]6 | [G,,,G,,]6 | [B,,,B,,]6 | [G,,,G,,]4 [F,,,F,,]2 | %6
 [E,,,E,,]6 | x6 | x2 [D,,,D,,]4 | x2 [D,,,D,,]4 | x2 [D,,,D,,]4 | x6 | x6 | x6 | x6 | x6 | x6 | %17
 [G,,,D,,G,,]6 | [G,,,D,,G,,]6 | x6 | [B,,,B,,]2 [B,,F,B,]4 | [E,,,E,,]2 x4 | [F,,,F,,]6 | x6 | %24
 x6 | [A,,,A,,]6 | [_A,,,_A,,]6 | x6 | x6 | [F,,,F,,]6 | [G,,,G,,]4 [A,,,A,,]2 | [D,,,D,,]6 | %32
 [D,,,D,,]6 | [D,,,D,,]6 | [D,,,D,,]6 | [G,,,G,,]6 | [B,,,B,,]6 | [G,,,G,,]4 [F,,,F,,]2 | %38
 [E,,,E,,]6 | x6 | x2 [D,,,D,,]4 | x2 [D,,,D,,]4 | x2 [D,,,D,,]4 | x6 | x6 | x6 | x6 | x6 | %48
 [E,,,D,,]6 | [G,,,G,,]6- | [G,,,G,,]6 | x6 |] %52
V:6
 x6 | x6 | x6 | x6 | x6 | x6 | x6 | x6 | [A,^FA]4 x2 | [A,D^FA]6 | [A,D^FA]6 | %11
 x2 !arpeggio![_A,_D_A]4 | x2 [G,C=EG]4 | x2 [G,CE^F]4 | x6 | x2 [DGBd]4 | x2 [DAd]4 | x6 | x6 | %19
 x6 | x6 | x6 | x6 | x6 | x6 | x6 | x6 | x2 [_D_A]4 | x2 [_A,CF]2 x2 | x6 | x6 | x6 | x2 [DAd]4 | %33
 x2 [DBd]4 | x2 [DAd]4 | x2{d-B-G-} [DGBd]4 | x2{^c-B-G-} [DGBc]4 | x2{d-B-G-} [DGBd]4 | %38
 x2 [G,B,EG]4 | x6 | [A,D^FA]6 | [A,D^FA]6 | [A,D^FA]6 | x2 !arpeggio![_A,_D_A]4 | x2 [G,C=EG]4 | %45
 x2 [G,CE^F]4 | x6 | x2 [DGd]4 | x2 [DAd]4 | x6 | x6 | x6 |] %52

